numeric-8-box.svg

<svg fill="currentColor" viewBox="0 0 24 24"><path d="M19 3a2 2 0 0 1 2 2v14a2 2 0 0 1-2 2H5a2 2 0 0 1-2-2V5a2 2 0 0 1 2-2zm-8 14h2a2 2 0 0 0 2-2v-1.5a1.5 1.5 0 0 0-1.5-1.5 1.5 1.5 0 0 0 1.5-1.5V9a2 2 0 0 0-2-2h-2a2 2 0 0 0-2 2v1.5a1.5 1.5 0 0 0 1.5 1.5A1.5 1.5 0 0 0 9 13.5V15a2 2 0 0 0 2 2m0-4h2v2h-2zm0-4h2v2h-2z"/></svg>

<svg  viewBox="0 0 24 24" fill="currentColor"><path  d="M19,3A2,2 0 0,1 21,5V19A2,2 0 0,1 19,21H5A2,2 0 0,1 3,19V5A2,2 0 0,1 5,3H19M11,17H13A2,2 0 0,0 15,15V13.5A1.5,1.5 0 0,0 13.5,12A1.5,1.5 0 0,0 15,10.5V9C15,7.89 14.1,7 13,7H11A2,2 0 0,0 9,9V10.5A1.5,1.5 0 0,0 10.5,12A1.5,1.5 0 0,0 9,13.5V15C9,16.11 9.9,17 11,17M11,13H13V15H11V13M11,9H13V11H11V9Z"/></svg>
